flaticon/grooming/manicure-14.svg

<svg xmlns="http://www.w3.org/2000/svg" width="32" height="32" viewBox="0 0 24 24">
    <path d="M14.851562 20.742188L9.148438 20.742188C8.902344 20.742188 8.742188 20.902344 8.742188 21.148438 8.742188 21.390625 8.902344 21.554688 9.148438 21.554688L14.851562 21.554688C15.097656 21.554688 15.257812 21.390625 15.257812 21.148438 15.257812 20.902344 15.097656 20.742188 14.851562 20.742188zM14.851562 19.109375L9.148438 19.109375C8.902344 19.109375 8.742188 19.273438 8.742188 19.519531 8.742188 19.761719 8.902344 19.925781 9.148438 19.925781L14.851562 19.925781C15.097656 19.925781 15.257812 19.761719 15.257812 19.519531 15.257812 19.273438 15.097656 19.109375 14.851562 19.109375zM14.851562 19.109375"/>
    <path d="M 16.320312 8.109375 L 16.238281 8.027344 L 16.214844 8.027344 C 15.757812 4.191406 14.792969 2.117188 13.957031 0.980469 C 13.464844 0.371094 12.734375 -0.0390625 11.917969 0.00390625 C 11.105469 0.00390625 10.371094 0.371094 9.921875 1.019531 C 9.113281 2.097656 8.195312 4.164062 7.765625 8.027344 L 7.722656 8.070312 C 6.296875 8.964844 5.480469 10.515625 5.480469 12.144531 L 5.480469 18.703125 C 5.480469 21.636719 7.84375 24 10.777344 24 L 13.222656 24 C 16.15625 24 18.519531 21.636719 18.519531 18.703125 L 18.519531 12.144531 C 18.519531 10.472656 17.703125 8.964844 16.320312 8.109375 Z M 8.46875 14.214844 C 9.238281 13.6875 10.171875 13.40625 11.183594 13.449219 L 13.140625 13.449219 C 14.035156 13.449219 14.886719 13.648438 15.578125 14.054688 C 15.257812 15.328125 14.109375 16.257812 12.734375 16.257812 L 11.265625 16.257812 C 9.945312 16.257812 8.839844 15.402344 8.46875 14.214844 Z M 9.96875 2.480469 C 10 2.683594 10.152344 2.8125 10.371094 2.8125 C 10.613281 2.8125 10.777344 2.652344 10.777344 2.40625 C 10.777344 2.164062 10.613281 2 10.371094 2 C 10.308594 2 10.253906 2.011719 10.203125 2.035156 C 10.3125 1.835938 10.425781 1.664062 10.535156 1.511719 C 10.609375 1.410156 10.691406 1.316406 10.78125 1.238281 C 10.800781 1.453125 10.957031 1.589844 11.183594 1.589844 C 11.429688 1.589844 11.59375 1.429688 11.59375 1.183594 C 11.59375 1.054688 11.546875 0.945312 11.464844 0.875 C 11.609375 0.835938 11.761719 0.816406 11.917969 0.816406 C 12.121094 0.816406 12.320312 0.855469 12.503906 0.921875 C 12.441406 0.996094 12.40625 1.089844 12.40625 1.183594 C 12.40625 1.429688 12.570312 1.589844 12.816406 1.589844 C 12.988281 1.589844 13.121094 1.511719 13.183594 1.375 C 13.210938 1.40625 13.238281 1.4375 13.261719 1.46875 C 13.382812 1.625 13.503906 1.800781 13.628906 2 C 13.382812 2 13.222656 2.203125 13.222656 2.40625 C 13.222656 2.652344 13.386719 2.8125 13.628906 2.8125 C 13.785156 2.8125 13.910156 2.746094 13.976562 2.636719 C 14.074219 2.828125 14.167969 3.039062 14.261719 3.265625 C 14.121094 3.335938 14.039062 3.480469 14.039062 3.628906 C 14.039062 3.875 14.199219 4.035156 14.445312 4.035156 C 14.480469 4.035156 14.511719 4.03125 14.542969 4.027344 C 14.808594 4.808594 15.042969 5.75 15.234375 6.890625 C 15.003906 6.902344 14.851562 7.097656 14.851562 7.296875 C 14.851562 7.539062 15.015625 7.703125 15.257812 7.703125 C 15.292969 7.703125 15.324219 7.699219 15.351562 7.695312 C 15.425781 8.234375 15.488281 8.808594 15.535156 9.429688 C 15.464844 9.367188 15.371094 9.332031 15.257812 9.332031 C 15.015625 9.332031 14.851562 9.535156 14.851562 9.742188 C 14.851562 9.984375 15.015625 10.148438 15.257812 10.148438 C 15.394531 10.148438 15.507812 10.097656 15.578125 10.011719 C 15.582031 10.058594 15.585938 10.113281 15.585938 10.164062 C 15.621094 10.78125 15.648438 11.425781 15.660156 12.097656 C 15.625 11.902344 15.472656 11.777344 15.257812 11.777344 C 15.015625 11.777344 14.851562 11.980469 14.851562 12.183594 C 14.851562 12.429688 15.015625 12.59375 15.257812 12.59375 C 15.480469 12.59375 15.632812 12.460938 15.660156 12.253906 C 15.664062 12.488281 15.667969 12.722656 15.667969 12.957031 L 15.667969 13.164062 C 14.90625 12.796875 14.003906 12.59375 13.101562 12.59375 L 11.183594 12.59375 C 10.132812 12.59375 9.160156 12.859375 8.332031 13.34375 C 8.332031 13.339844 8.332031 13.332031 8.332031 13.324219 L 8.332031 12.957031 C 8.332031 12.722656 8.335938 12.488281 8.339844 12.253906 C 8.367188 12.460938 8.519531 12.59375 8.742188 12.59375 C 8.984375 12.59375 9.148438 12.429688 9.148438 12.183594 C 9.148438 11.941406 8.984375 11.777344 8.742188 11.777344 C 8.527344 11.777344 8.375 11.933594 8.339844 12.109375 C 8.351562 11.382812 8.382812 10.683594 8.421875 10.007812 C 8.492188 10.097656 8.605469 10.148438 8.742188 10.148438 C 8.984375 10.148438 9.148438 9.984375 9.148438 9.738281 C 9.148438 9.496094 8.984375 9.332031 8.742188 9.332031 C 8.625 9.332031 8.527344 9.378906 8.457031 9.449219 C 8.476562 9.152344 8.5 8.859375 8.523438 8.570312 C 8.554688 8.265625 8.585938 7.972656 8.621094 7.6875 C 8.660156 7.699219 8.699219 7.703125 8.742188 7.703125 C 8.984375 7.703125 9.148438 7.539062 9.148438 7.296875 C 9.148438 7.050781 8.984375 6.886719 8.742188 6.886719 C 8.738281 6.886719 8.734375 6.886719 8.730469 6.886719 C 8.910156 5.730469 9.132812 4.78125 9.375 4 C 9.429688 4.023438 9.488281 4.035156 9.554688 4.035156 C 9.800781 4.035156 9.960938 3.875 9.960938 3.628906 C 9.960938 3.414062 9.839844 3.265625 9.644531 3.230469 C 9.75 2.953125 9.859375 2.707031 9.96875 2.480469 Z M 17.703125 18.703125 C 17.703125 21.1875 15.707031 23.183594 13.222656 23.183594 L 10.777344 23.183594 C 8.292969 23.183594 6.296875 21.1875 6.296875 18.703125 L 6.296875 12.144531 C 6.296875 10.960938 6.785156 9.863281 7.640625 9.128906 C 7.558594 10.3125 7.519531 11.574219 7.519531 12.957031 L 7.519531 13.324219 C 7.519531 13.574219 7.542969 13.820312 7.589844 14.058594 C 7.589844 14.085938 7.59375 14.113281 7.601562 14.140625 C 7.777344 14.976562 8.238281 15.695312 8.867188 16.210938 C 8.875 16.214844 8.878906 16.222656 8.886719 16.226562 C 8.914062 16.25 8.945312 16.269531 8.972656 16.292969 C 9.441406 16.65625 10.003906 16.910156 10.617188 17.015625 C 10.621094 17.019531 10.621094 17.019531 10.625 17.019531 C 10.667969 17.027344 10.714844 17.03125 10.761719 17.039062 C 10.777344 17.042969 10.792969 17.042969 10.808594 17.046875 C 10.847656 17.050781 10.882812 17.054688 10.917969 17.058594 C 10.949219 17.058594 10.980469 17.0625 11.007812 17.0625 C 11.035156 17.066406 11.0625 17.066406 11.089844 17.070312 C 11.148438 17.070312 11.207031 17.074219 11.265625 17.074219 L 12.734375 17.074219 C 12.796875 17.074219 12.859375 17.070312 12.917969 17.070312 C 12.933594 17.070312 12.953125 17.066406 12.96875 17.066406 C 13.011719 17.0625 13.058594 17.058594 13.105469 17.054688 C 13.121094 17.054688 13.136719 17.050781 13.152344 17.050781 C 13.199219 17.046875 13.246094 17.039062 13.292969 17.03125 C 13.304688 17.03125 13.316406 17.027344 13.328125 17.027344 C 13.378906 17.019531 13.429688 17.011719 13.480469 17 C 13.488281 17 13.496094 16.996094 13.5 16.996094 C 14.101562 16.871094 14.652344 16.605469 15.105469 16.234375 C 15.117188 16.222656 15.128906 16.214844 15.140625 16.203125 C 15.164062 16.183594 15.1875 16.164062 15.210938 16.140625 C 15.242188 16.117188 15.269531 16.089844 15.296875 16.066406 C 15.296875 16.0625 15.296875 16.0625 15.300781 16.0625 C 16.027344 15.378906 16.480469 14.410156 16.480469 13.324219 L 16.480469 12.957031 C 16.480469 11.945312 16.457031 10.957031 16.394531 10.023438 C 16.375 9.71875 16.355469 9.425781 16.328125 9.136719 C 17.21875 9.871094 17.703125 10.96875 17.703125 12.144531 Z M 17.703125 18.703125"/>
    <path d="M10.371094 11.777344C10.125 11.777344 9.960938 11.980469 9.960938 12.183594 9.960938 12.429688 10.125 12.59375 10.371094 12.59375 10.613281 12.59375 10.777344 12.429688 10.777344 12.183594 10.777344 11.941406 10.613281 11.777344 10.371094 11.777344zM13.628906 11.777344C13.386719 11.777344 13.222656 11.980469 13.222656 12.183594 13.222656 12.429688 13.386719 12.59375 13.628906 12.59375 13.875 12.59375 14.039062 12.429688 14.039062 12.183594 14.039062 11.941406 13.875 11.777344 13.628906 11.777344zM12.40625 12.183594C12.40625 11.941406 12.246094 11.777344 12 11.777344 11.753906 11.777344 11.59375 11.980469 11.59375 12.183594 11.59375 12.429688 11.753906 12.59375 12 12.59375 12.246094 12.59375 12.40625 12.429688 12.40625 12.183594zM9.554688 10.554688C9.3125 10.554688 9.148438 10.757812 9.148438 10.960938 9.148438 11.207031 9.3125 11.371094 9.554688 11.371094 9.800781 11.371094 9.960938 11.207031 9.960938 10.960938 9.960938 10.71875 9.800781 10.554688 9.554688 10.554688zM10.371094 9.332031C10.125 9.332031 9.960938 9.535156 9.960938 9.738281 9.960938 9.984375 10.125 10.148438 10.371094 10.148438 10.613281 10.148438 10.777344 9.984375 10.777344 9.738281 10.777344 9.496094 10.613281 9.332031 10.371094 9.332031zM13.628906 10.148438C13.875 10.148438 14.039062 9.984375 14.039062 9.738281 14.039062 9.496094 13.875 9.332031 13.628906 9.332031 13.386719 9.332031 13.222656 9.535156 13.222656 9.738281 13.222656 9.984375 13.386719 10.148438 13.628906 10.148438zM12 9.332031C11.753906 9.332031 11.59375 9.535156 11.59375 9.738281 11.59375 9.984375 11.753906 10.148438 12 10.148438 12.246094 10.148438 12.40625 9.984375 12.40625 9.738281 12.40625 9.496094 12.246094 9.332031 12 9.332031zM11.183594 10.554688C10.941406 10.554688 10.777344 10.757812 10.777344 10.960938 10.777344 11.207031 10.941406 11.371094 11.183594 11.371094 11.429688 11.371094 11.59375 11.207031 11.59375 10.960938 11.59375 10.71875 11.429688 10.554688 11.183594 10.554688zM12.816406 10.554688C12.570312 10.554688 12.40625 10.757812 12.40625 10.960938 12.40625 11.207031 12.570312 11.371094 12.816406 11.371094 13.058594 11.371094 13.222656 11.207031 13.222656 10.960938 13.222656 10.71875 13.058594 10.554688 12.816406 10.554688zM14.445312 10.554688C14.199219 10.554688 14.039062 10.757812 14.039062 10.960938 14.039062 11.207031 14.199219 11.371094 14.445312 11.371094 14.6875 11.371094 14.851562 11.207031 14.851562 10.960938 14.851562 10.71875 14.6875 10.554688 14.445312 10.554688zM9.554688 8.925781C9.800781 8.925781 9.960938 8.761719 9.960938 8.519531 9.960938 8.273438 9.800781 8.109375 9.554688 8.109375 9.3125 8.109375 9.148438 8.3125 9.148438 8.519531 9.148438 8.761719 9.3125 8.925781 9.554688 8.925781zM10.371094 6.886719C10.125 6.886719 9.960938 7.09375 9.960938 7.296875 9.960938 7.539062 10.125 7.703125 10.371094 7.703125 10.613281 7.703125 10.777344 7.539062 10.777344 7.296875 10.777344 7.050781 10.613281 6.886719 10.371094 6.886719zM13.628906 6.886719C13.386719 6.886719 13.222656 7.09375 13.222656 7.296875 13.222656 7.539062 13.386719 7.703125 13.628906 7.703125 13.875 7.703125 14.039062 7.539062 14.039062 7.296875 14.039062 7.050781 13.875 6.886719 13.628906 6.886719zM12 7.703125C12.246094 7.703125 12.40625 7.539062 12.40625 7.296875 12.40625 7.050781 12.246094 6.886719 12 6.886719 11.753906 6.886719 11.59375 7.09375 11.59375 7.296875 11.59375 7.539062 11.753906 7.703125 12 7.703125zM11.183594 8.925781C11.429688 8.925781 11.59375 8.761719 11.59375 8.519531 11.59375 8.273438 11.429688 8.109375 11.183594 8.109375 10.941406 8.109375 10.777344 8.3125 10.777344 8.519531 10.777344 8.761719 10.941406 8.925781 11.183594 8.925781zM12.816406 8.109375C12.570312 8.109375 12.40625 8.3125 12.40625 8.519531 12.40625 8.761719 12.570312 8.925781 12.816406 8.925781 13.058594 8.925781 13.222656 8.761719 13.222656 8.519531 13.222656 8.273438 13.058594 8.109375 12.816406 8.109375zM14.445312 8.109375C14.199219 8.109375 14.039062 8.3125 14.039062 8.519531 14.039062 8.761719 14.199219 8.925781 14.445312 8.925781 14.6875 8.925781 14.851562 8.761719 14.851562 8.519531 14.851562 8.273438 14.6875 8.109375 14.445312 8.109375zM9.554688 6.480469C9.800781 6.480469 9.960938 6.316406 9.960938 6.074219 9.960938 5.828125 9.800781 5.664062 9.554688 5.664062 9.3125 5.664062 9.148438 5.871094 9.148438 6.074219 9.148438 6.316406 9.3125 6.480469 9.554688 6.480469zM10.371094 5.257812C10.613281 5.257812 10.777344 5.09375 10.777344 4.851562 10.777344 4.605469 10.613281 4.445312 10.371094 4.445312 10.125 4.445312 9.960938 4.648438 9.960938 4.851562 9.960938 5.09375 10.125 5.257812 10.371094 5.257812zM13.628906 5.257812C13.875 5.257812 14.039062 5.09375 14.039062 4.851562 14.039062 4.605469 13.875 4.445312 13.628906 4.445312 13.386719 4.445312 13.222656 4.648438 13.222656 4.851562 13.222656 5.09375 13.386719 5.257812 13.628906 5.257812zM12 4.445312C11.753906 4.445312 11.59375 4.648438 11.59375 4.851562 11.59375 5.09375 11.753906 5.257812 12 5.257812 12.246094 5.257812 12.40625 5.09375 12.40625 4.851562 12.40625 4.605469 12.246094 4.445312 12 4.445312zM11.183594 5.664062C10.941406 5.664062 10.777344 5.871094 10.777344 6.074219 10.777344 6.316406 10.941406 6.480469 11.183594 6.480469 11.429688 6.480469 11.59375 6.316406 11.59375 6.074219 11.59375 5.828125 11.429688 5.664062 11.183594 5.664062zM12.816406 5.664062C12.570312 5.664062 12.40625 5.871094 12.40625 6.074219 12.40625 6.316406 12.570312 6.480469 12.816406 6.480469 13.058594 6.480469 13.222656 6.316406 13.222656 6.074219 13.222656 5.828125 13.058594 5.664062 12.816406 5.664062zM14.445312 6.480469C14.6875 6.480469 14.851562 6.316406 14.851562 6.074219 14.851562 5.828125 14.6875 5.664062 14.445312 5.664062 14.199219 5.664062 14.039062 5.871094 14.039062 6.074219 14.039062 6.316406 14.199219 6.480469 14.445312 6.480469zM12 2.8125C12.246094 2.8125 12.40625 2.652344 12.40625 2.40625 12.40625 2.164062 12.246094 2 12 2 11.753906 2 11.59375 2.203125 11.59375 2.40625 11.59375 2.652344 11.753906 2.8125 12 2.8125zM11.183594 4.035156C11.429688 4.035156 11.59375 3.875 11.59375 3.628906 11.59375 3.382812 11.429688 3.222656 11.183594 3.222656 10.941406 3.222656 10.777344 3.425781 10.777344 3.628906 10.777344 3.875 10.941406 4.035156 11.183594 4.035156zM12.816406 4.035156C13.058594 4.035156 13.222656 3.875 13.222656 3.628906 13.222656 3.382812 13.058594 3.222656 12.816406 3.222656 12.570312 3.222656 12.40625 3.425781 12.40625 3.628906 12.40625 3.875 12.570312 4.035156 12.816406 4.035156zM12.816406 4.035156"/>
</svg>

<svg xmlns="http://www.w3.org/2000/svg" width="32" height="32" viewBox="0 0 24 24">
    <path d="M14.852 20.742H9.148c-.246 0-.406.16-.406.406 0 .243.16.407.406.407h5.704c.246 0 .406-.164.406-.407 0-.246-.16-.406-.406-.406zm0 0M14.852 19.11H9.148c-.246 0-.406.163-.406.41 0 .242.16.406.406.406h5.704c.246 0 .406-.164.406-.406 0-.247-.16-.41-.406-.41zm0 0"/>
    <path d="M16.32 8.11l-.082-.083h-.023c-.457-3.836-1.422-5.91-2.258-7.047-.492-.609-1.223-1.02-2.039-.976-.813 0-1.547.367-1.996 1.016-.809 1.078-1.727 3.144-2.156 7.007l-.043.043a4.797 4.797 0 0 0-2.243 4.075v6.558A5.286 5.286 0 0 0 10.777 24h2.446a5.286 5.286 0 0 0 5.297-5.297v-6.558c0-1.672-.817-3.18-2.2-4.036zM8.47 14.214a4.429 4.429 0 0 1 2.715-.766h1.957c.894 0 1.746.2 2.437.606a2.92 2.92 0 0 1-2.844 2.203h-1.468a2.917 2.917 0 0 1-2.797-2.043zm1.5-11.735c.031.204.183.333.402.333.242 0 .406-.16.406-.407A.385.385 0 0 0 10.371 2a.392.392 0 0 0-.168.035c.11-.2.223-.37.332-.523.074-.102.156-.196.246-.274.02.215.176.352.403.352.246 0 .41-.16.41-.406a.397.397 0 0 0-.13-.309 1.736 1.736 0 0 1 1.04.047.41.41 0 0 0-.098.262c0 .246.164.406.41.406.172 0 .305-.078.368-.215.027.031.054.063.078.094.12.156.242.332.367.531a.406.406 0 0 0-.406.406c0 .246.164.406.406.406.156 0 .281-.066.348-.175.097.191.191.402.285.629a.407.407 0 0 0-.223.363c0 .246.16.406.406.406.035 0 .067-.004.098-.008.266.782.5 1.723.691 2.864a.406.406 0 0 0-.382.406c0 .242.164.406.406.406a.648.648 0 0 0 .094-.008c.074.54.136 1.114.183 1.735a.406.406 0 0 0-.277-.098.409.409 0 0 0-.406.41c0 .242.164.406.406.406.137 0 .25-.05.32-.136a48.894 48.894 0 0 1 .082 2.086c-.035-.196-.187-.32-.402-.32a.408.408 0 0 0-.406.406c0 .246.164.41.406.41.222 0 .375-.133.402-.34.004.234.008.469.008.703v.207a5.995 5.995 0 0 0-2.566-.57h-1.918c-1.051 0-2.024.265-2.852.75v-.387c0-.234.004-.469.008-.703.027.207.18.34.402.34.242 0 .406-.164.406-.41a.385.385 0 0 0-.406-.407.41.41 0 0 0-.402.332c.012-.726.043-1.425.082-2.101.07.09.183.14.32.14.242 0 .406-.164.406-.41a.385.385 0 0 0-.406-.406.397.397 0 0 0-.285.117c.02-.297.043-.59.066-.879.032-.304.063-.597.098-.883.04.012.078.016.121.016a.385.385 0 0 0 .406-.406c0-.246-.164-.41-.406-.41H8.73C8.91 5.73 9.133 4.78 9.375 4a.447.447 0 0 0 .18.035c.246 0 .406-.16.406-.406 0-.215-.121-.363-.316-.399.105-.277.214-.523.324-.75zm7.734 16.223a4.468 4.468 0 0 1-4.48 4.48h-2.446a4.468 4.468 0 0 1-4.48-4.48v-6.558c0-1.184.488-2.282 1.344-3.016a55.318 55.318 0 0 0-.121 3.828v.367c0 .25.023.496.07.735 0 .027.004.054.012.082a3.648 3.648 0 0 0 1.265 2.07c.008.004.012.012.02.016.027.023.058.043.086.066a3.71 3.71 0 0 0 1.644.723c.004.004.004.004.008.004.043.007.09.011.137.02.015.003.031.003.047.007l.109.012c.031 0 .062.003.09.003.027.004.055.004.082.008.058 0 .117.004.176.004h1.468c.063 0 .125-.004.184-.004.016 0 .035-.004.05-.004l.137-.011c.016 0 .032-.004.047-.004.047-.004.094-.012.141-.02.012 0 .023-.004.035-.004.05-.007.102-.015.152-.027.008 0 .016-.004.02-.004a3.734 3.734 0 0 0 1.605-.762l.036-.03c.023-.02.046-.04.07-.063.031-.024.059-.051.086-.075 0-.003 0-.003.004-.003a3.74 3.74 0 0 0 1.18-2.739v-.367a44.33 44.33 0 0 0-.153-3.82c.89.734 1.375 1.832 1.375 3.008zm0 0"/>
    <path d="M10.371 11.777a.409.409 0 0 0-.41.407c0 .246.164.41.41.41.242 0 .406-.164.406-.41a.385.385 0 0 0-.406-.407zm0 0M13.629 11.777a.408.408 0 0 0-.406.407c0 .246.164.41.406.41.246 0 .41-.164.41-.41 0-.243-.164-.407-.41-.407zm0 0M12.406 12.184c0-.243-.16-.407-.406-.407a.406.406 0 0 0-.406.407c0 .246.16.41.406.41.246 0 .406-.164.406-.41zm0 0M9.555 10.555a.408.408 0 0 0-.407.406c0 .246.165.41.407.41.246 0 .406-.164.406-.41 0-.242-.16-.406-.406-.406zm0 0M10.371 9.332a.409.409 0 0 0-.41.406c0 .246.164.41.41.41.242 0 .406-.164.406-.41a.385.385 0 0 0-.406-.406zm0 0M13.629 10.148c.246 0 .41-.164.41-.41 0-.242-.164-.406-.41-.406a.408.408 0 0 0-.406.406c0 .246.164.41.406.41zm0 0M12 9.332a.406.406 0 0 0-.406.406c0 .246.16.41.406.41.246 0 .406-.164.406-.41 0-.242-.16-.406-.406-.406zm0 0M11.184 10.555a.408.408 0 0 0-.407.406c0 .246.164.41.407.41.246 0 .41-.164.41-.41 0-.242-.164-.406-.41-.406zm0 0M12.816 10.555a.409.409 0 0 0-.41.406c0 .246.164.41.41.41.243 0 .407-.164.407-.41a.385.385 0 0 0-.407-.406zm0 0M14.445 10.555a.406.406 0 0 0-.406.406c0 .246.16.41.406.41.242 0 .407-.164.407-.41a.385.385 0 0 0-.407-.406zm0 0M9.555 8.926c.246 0 .406-.164.406-.406 0-.247-.16-.41-.406-.41a.409.409 0 0 0-.407.41c0 .242.165.406.407.406zm0 0M10.371 6.887a.412.412 0 0 0-.41.41c0 .242.164.406.41.406a.385.385 0 0 0 .406-.406c0-.246-.164-.41-.406-.41zm0 0M13.629 6.887a.411.411 0 0 0-.406.41c0 .242.164.406.406.406.246 0 .41-.164.41-.406 0-.246-.164-.41-.41-.41zm0 0M12 7.703c.246 0 .406-.164.406-.406 0-.246-.16-.41-.406-.41a.409.409 0 0 0-.406.41c0 .242.16.406.406.406zm0 0M11.184 8.926c.246 0 .41-.164.41-.406 0-.247-.164-.41-.41-.41a.409.409 0 0 0-.407.41c0 .242.164.406.407.406zm0 0M12.816 8.11a.41.41 0 0 0-.41.41c0 .242.164.406.41.406a.385.385 0 0 0 .407-.406c0-.247-.164-.41-.407-.41zm0 0M14.445 8.11a.406.406 0 0 0-.406.41c0 .242.16.406.406.406a.385.385 0 0 0 .407-.406c0-.247-.165-.41-.407-.41zm0 0M9.555 6.48c.246 0 .406-.164.406-.406 0-.246-.16-.41-.406-.41a.411.411 0 0 0-.407.41c0 .242.165.406.407.406zm0 0M10.371 5.258a.385.385 0 0 0 .406-.406c0-.247-.164-.407-.406-.407a.409.409 0 0 0-.41.407c0 .242.164.406.41.406zm0 0M13.629 5.258c.246 0 .41-.164.41-.406 0-.247-.164-.407-.41-.407a.408.408 0 0 0-.406.407c0 .242.164.406.406.406zm0 0M12 4.445a.406.406 0 0 0-.406.407c0 .242.16.406.406.406.246 0 .406-.164.406-.406 0-.247-.16-.407-.406-.407zm0 0M11.184 5.664a.411.411 0 0 0-.407.41c0 .242.164.406.407.406.246 0 .41-.164.41-.406 0-.246-.164-.41-.41-.41zm0 0M12.816 5.664a.412.412 0 0 0-.41.41c0 .242.164.406.41.406a.385.385 0 0 0 .407-.406c0-.246-.164-.41-.407-.41zm0 0M14.445 6.48a.385.385 0 0 0 .407-.406c0-.246-.165-.41-.407-.41a.409.409 0 0 0-.406.41c0 .242.16.406.406.406zm0 0M12 2.813c.246 0 .406-.16.406-.407 0-.242-.16-.406-.406-.406a.406.406 0 0 0-.406.406c0 .246.16.406.406.406zm0 0M11.184 4.035c.246 0 .41-.16.41-.406 0-.246-.164-.406-.41-.406a.408.408 0 0 0-.407.406c0 .246.164.406.407.406zm0 0M12.816 4.035c.243 0 .407-.16.407-.406 0-.246-.164-.406-.407-.406a.409.409 0 0 0-.41.406c0 .246.164.406.41.406zm0 0"/>
</svg>
